public/programming-user-code.svg

<svg width="72" height="71" viewBox="0 0 72 71" fill="none" xmlns="http://www.w3.org/2000/svg">
<rect x="0.577881" y="0.634888" width="70.8443" height="70" rx="15.2174" fill="#292732"/>
<path d="M40.5653 50.9023C39.1369 51.7716 37.4537 52.1252 35.7962 51.9042C35.1154 51.8342 34.4438 51.6931 33.7924 51.4834C33.1451 51.281 32.5258 50.9982 31.9489 50.6418C31.2355 50.2627 30.611 49.736 30.1169 49.0968C29.6228 48.4576 29.2705 47.7206 29.0834 46.9347C29.0834 46.3536 28.9231 45.8125 28.9231 45.2114C29.0202 43.6924 28.953 42.1673 28.7227 40.6627C28.5546 39.8173 28.1356 39.0422 27.5204 38.4384C27.2358 38.1916 26.875 38.0502 26.4984 38.0377C26.0876 38.0607 25.679 38.1143 25.2761 38.198H21.3887H19.7455C19.4015 37.6404 19.1 37.0576 18.8438 36.4546C18.6173 35.8758 18.4691 35.2693 18.4029 34.6512C18.343 34.1788 18.343 33.7008 18.4029 33.2285C18.471 32.7598 18.599 32.3019 18.7837 31.8659C19.2142 30.5345 20.1108 29.4032 21.3085 28.6798C22.2153 28.2203 23.2175 27.9808 24.2341 27.9808C25.2507 27.9808 26.2529 28.2203 27.1597 28.6798C28.1817 29.1406 34.0729 32.2666 30.1454 37.8172C30.0472 37.9687 30.0132 38.153 30.0507 38.3296C30.0883 38.5062 30.1944 38.6607 30.3458 38.7591C31.0194 39.3522 31.6182 40.0251 32.1292 40.7629C32.6322 41.4939 33.0491 42.2806 33.3716 43.1074C33.6887 43.9354 33.9432 44.7861 34.133 45.6522C34.3375 46.3813 34.6849 47.0625 35.155 47.6561C35.6039 48.185 36.1989 48.5698 36.8654 48.7622C37.5319 48.9547 38.2404 48.9463 38.9022 48.7381C39.2081 48.663 39.5093 48.5693 39.8039 48.4576L40.6054 48.0769C40.6975 48.0348 40.7804 47.9749 40.8494 47.9008C40.9184 47.8267 40.9721 47.7396 41.0074 47.6448C41.0428 47.5499 41.0591 47.4489 41.0555 47.3477C41.0518 47.2465 41.0283 47.147 40.9862 47.0549C40.944 46.9628 40.8842 46.8799 40.8101 46.8109C40.7359 46.742 40.6489 46.6883 40.554 46.6529C40.4591 46.6176 40.3582 46.6012 40.257 46.6049C40.1558 46.6085 40.0563 46.6321 39.9642 46.6742L38.6617 46.9347C38.3543 46.9893 38.0377 46.954 37.7498 46.8332C37.4619 46.7123 37.215 46.511 37.0386 46.2534C36.7567 45.7214 36.567 45.1455 36.4775 44.5501C36.2941 43.7463 36.0184 42.9663 35.656 42.2257C35.1003 41.3008 34.4267 40.452 33.6521 39.7009C33.0866 39.1896 32.4687 38.7396 31.8086 38.3583C31.8086 38.3583 31.9689 38.3583 32.029 38.218C35.2752 33.6092 32.4498 28.7198 28.2618 26.6158C27.2111 26.051 26.0569 25.7048 24.8687 25.5981C23.6806 25.4913 22.4832 25.6262 21.3486 25.9946C20.2332 26.4235 19.2366 27.1129 18.4419 28.0052C17.6471 28.8976 17.0772 29.9671 16.7798 31.1244C16.6167 31.7263 16.5225 32.3448 16.4993 32.968C16.4554 33.5993 16.5026 34.2337 16.6396 34.8516C16.8064 35.6034 17.069 36.3308 17.4211 37.0157C17.6446 37.4241 17.8922 37.8189 18.1625 38.198C17.4921 38.2152 16.8232 38.2688 16.1587 38.3583C15.5836 38.4244 15.0186 38.559 14.4754 38.7591C14.0879 38.9044 13.7481 39.154 13.4936 39.4804C13.1215 39.9953 12.8433 40.572 12.672 41.1837C12.4014 42.3287 12.2338 43.4955 12.171 44.6704C11.8545 47.5887 11.9557 50.5373 12.4716 53.4271C12.8182 55.4063 13.5908 57.2866 14.7359 58.9377C14.8441 59.0839 15.005 59.1824 15.1844 59.2123C15.3639 59.2422 15.548 59.2012 15.6978 59.098C15.8427 58.9934 15.9407 58.836 15.9707 58.6599C16.0006 58.4837 15.9602 58.3028 15.8581 58.1562C14.9281 56.6338 14.3528 54.9216 14.1749 53.1466C13.8655 50.4298 13.9532 47.6825 14.4354 44.991C14.5556 44.2496 14.6959 43.2276 14.9363 42.3058C15.0324 41.8886 15.1948 41.4894 15.4172 41.1236C15.2369 40.803 16.2188 40.9633 16.5193 40.9232C17.1369 40.8367 17.7594 40.7898 18.3829 40.7829H21.4087C26.8591 40.5825 26.3582 40.1617 26.6187 41.6646C26.7692 42.8276 26.8495 43.9986 26.8591 45.1713C26.9378 47.1666 27.2266 49.1479 27.7208 51.0826C28.1837 52.9993 28.8002 54.8756 29.5643 56.6934C29.636 56.8847 29.7809 57.0397 29.9669 57.1242C30.1529 57.2088 30.3649 57.216 30.5562 57.1442C30.7475 57.0725 30.9025 56.9277 30.9871 56.7417C31.0716 56.5556 31.0788 56.3436 31.0071 56.1523C30.5297 54.7472 30.135 53.3153 29.8248 51.8641C30.0651 52.1379 30.3264 52.3924 30.6063 52.6256C31.3529 53.1908 32.1943 53.6183 33.091 53.888C33.964 54.1721 34.8784 54.3076 35.7962 54.2888C37.9432 54.2801 40.0119 53.4812 41.6073 52.0445C41.6887 51.9835 41.7571 51.9068 41.8083 51.819C41.8596 51.7311 41.8927 51.6339 41.9058 51.533C41.9189 51.4322 41.9116 51.3297 41.8845 51.2317C41.8573 51.1337 41.8107 51.0421 41.7476 50.9624C41.6787 50.8737 41.5914 50.8009 41.4918 50.749C41.3921 50.697 41.2825 50.6672 41.1702 50.6615C41.058 50.6558 40.9459 50.6743 40.8415 50.7159C40.7371 50.7574 40.6429 50.821 40.5653 50.9023Z" fill="#46C1E3"/>
<path d="M40.325 20.1634C40.4912 20.0429 40.6032 19.8618 40.637 19.6594C40.6707 19.4569 40.6234 19.2493 40.5054 19.0814C40.3782 18.918 40.194 18.8086 39.9897 18.7751C39.7853 18.7417 39.5759 18.7867 39.4033 18.901L34.2935 21.3457C33.5914 21.702 32.921 22.1176 32.2896 22.5881C31.9951 22.8499 31.8152 23.2169 31.7887 23.61C31.7608 23.8152 31.7786 24.0241 31.841 24.2216C31.9034 24.419 32.0087 24.6003 32.1494 24.7522C32.4099 25.0528 33.2114 25.7141 33.2715 25.7742L37.7601 29.4612C37.8878 29.5885 38.0607 29.6599 38.241 29.6599C38.4213 29.6599 38.5943 29.5885 38.722 29.4612C38.8492 29.3335 38.9207 29.1606 38.9207 28.9803C38.9207 28.8 38.8492 28.6271 38.722 28.4994L35.0549 23.9106L34.8546 23.7904L35.596 23.4698L40.325 20.1634Z" fill="#46C1E3"/>
<path d="M46.2162 28.279C46.1346 28.3368 46.0652 28.4102 46.012 28.4949C45.9588 28.5796 45.9228 28.674 45.906 28.7726C45.8893 28.8712 45.8921 28.9722 45.9144 29.0697C45.9367 29.1672 45.978 29.2594 46.0359 29.341C46.1595 29.503 46.3402 29.6118 46.5413 29.6453C46.7423 29.6788 46.9485 29.6345 47.118 29.5213L52.2277 27.0767C52.934 26.7355 53.6051 26.3261 54.2316 25.8543C54.5094 25.6049 54.6874 25.2631 54.7325 24.8925C54.7603 24.6904 54.7422 24.4846 54.6798 24.2904C54.6174 24.0962 54.5121 23.9184 54.3718 23.7703C54.018 23.4081 53.6434 23.0669 53.2497 22.7484L48.7611 19.0413C48.6994 18.9719 48.6242 18.9158 48.5401 18.8765C48.456 18.8373 48.3647 18.8156 48.2719 18.8129C48.1791 18.8101 48.0867 18.8264 48.0004 18.8607C47.9141 18.8949 47.8358 18.9465 47.7701 19.0121C47.7044 19.0778 47.6529 19.1561 47.6186 19.2424C47.5844 19.3287 47.5681 19.4211 47.5708 19.5139C47.5736 19.6067 47.5952 19.698 47.6345 19.7821C47.6738 19.8662 47.7299 19.9414 47.7993 20.0031L51.4663 24.5117L51.6667 24.652C51.4118 24.7401 51.164 24.8472 50.9253 24.9726L46.2162 28.279Z" fill="#46C1E3"/>
<path d="M46.5366 16.3161C46.454 16.2807 46.3651 16.2624 46.2752 16.2626C46.1853 16.2627 46.0964 16.2811 46.0139 16.3167C45.9314 16.3524 45.857 16.4045 45.7953 16.4698C45.7335 16.5351 45.6858 16.6124 45.6549 16.6968C44.8935 17.9993 44.132 19.2617 43.4908 20.7045C43.2103 21.2856 42.9898 21.8867 42.7694 22.4879C42.549 23.089 42.3687 23.6902 42.2084 24.3114C41.8276 25.7742 41.5671 27.2169 41.2866 28.6998C41.256 28.7971 41.2452 28.8996 41.255 29.0012C41.2647 29.1027 41.2948 29.2013 41.3434 29.291C41.392 29.3808 41.4581 29.4598 41.5379 29.5235C41.6176 29.5871 41.7093 29.6341 41.8076 29.6616C42.0042 29.7179 42.215 29.6949 42.3949 29.5975C42.5747 29.5 42.7091 29.336 42.7694 29.1406C43.3305 27.778 43.9517 26.4555 44.5128 25.1329C44.7532 24.5518 44.9937 23.9707 45.2141 23.3896C45.4378 22.8053 45.6318 22.2101 45.7952 21.6062C46.216 20.1835 46.5166 18.7608 46.9174 17.338C46.9706 17.248 47.003 17.1473 47.0123 17.0432C47.0215 16.939 47.0074 16.8342 46.9709 16.7362C46.9344 16.6382 46.8765 16.5497 46.8013 16.477C46.7262 16.4043 46.6358 16.3493 46.5366 16.3161Z" fill="#46C1E3"/>
<path d="M59.7822 21.6062C58.5999 10.8256 61.4053 14.2922 51.4462 12.8695C48.2992 12.4082 45.1276 12.1339 41.948 12.0479C40.345 12.0479 38.762 12.0479 37.1789 12.1882C35.5959 12.3284 33.9327 12.5288 32.3898 12.7693C30.8468 13.0098 29.4642 13.1099 27.9212 13.3504C24.0538 14.0117 23.9135 12.7092 23.7733 17.5985C23.7432 18.0322 23.7432 18.4674 23.7733 18.901C23.793 19.2979 23.8398 19.6929 23.9135 20.0833C24.1139 21.0852 24.4746 22.0871 24.675 22.9888C24.6822 23.0823 24.7086 23.1732 24.7525 23.2559C24.7965 23.3387 24.857 23.4115 24.9303 23.4698C25.0037 23.5281 25.0883 23.5706 25.1788 23.5948C25.2693 23.6189 25.3639 23.6241 25.4565 23.61C25.5451 23.6075 25.6323 23.5872 25.7129 23.5503C25.7935 23.5134 25.8659 23.4607 25.9257 23.3952C25.9855 23.3298 26.0316 23.253 26.0611 23.1694C26.0907 23.0859 26.1031 22.9972 26.0977 22.9087C26.3103 21.7579 26.4309 20.592 26.4584 19.422C26.4445 18.7489 26.3707 18.0783 26.238 17.4182C26.1378 16.6968 25.9174 15.9955 25.9174 15.2741C26.6849 15.1236 27.4613 15.0232 28.2418 14.9735C29.7247 14.8733 31.2075 14.8733 32.6503 14.8132C34.093 14.7531 35.7562 14.713 37.3192 14.693C38.8822 14.6729 40.4251 14.693 41.9681 14.693C45.074 14.693 48.1599 14.693 51.2859 14.9334C52.9892 15.0537 54.7926 14.9334 56.536 14.9334H56.8165C56.9367 15.8752 57.077 16.817 57.1371 17.7789C57.1972 18.7407 57.1371 19.7827 57.2573 20.9049C57.3776 22.027 57.3575 22.9087 57.4176 24.0308C57.6381 27.237 57.8785 30.4231 57.9587 33.529C57.9742 33.6628 58.0301 33.7886 58.119 33.8897C55.2062 34.3081 52.2567 34.4089 49.3222 34.1903L45.6752 34.07H43.2105C40.9692 34.1161 38.7334 34.3102 36.5177 34.6512C36.4196 34.6433 36.321 34.6567 36.2287 34.6905C36.1363 34.7243 36.0524 34.7778 35.9826 34.8471C35.9129 34.9164 35.859 35.0001 35.8246 35.0922C35.7902 35.1844 35.7762 35.2829 35.7836 35.381C35.7909 35.479 35.8193 35.5744 35.867 35.6604C35.9147 35.7465 35.9804 35.8212 36.0597 35.8794C36.1389 35.9376 36.2299 35.978 36.3262 35.9977C36.4226 36.0174 36.5221 36.0161 36.6179 35.9937C38.1207 35.9937 39.6036 35.9937 41.0664 36.2342C40.92 36.7475 40.8063 37.2695 40.7257 37.7972C40.6959 38.1639 40.6959 38.5325 40.7257 38.8993V40.0014C40.7257 40.8831 40.9461 41.7047 41.0263 42.5663C41.0095 42.7705 41.0736 42.9732 41.2048 43.1306C41.336 43.288 41.5237 43.3876 41.7276 43.4079C41.8282 43.419 41.93 43.4093 42.0267 43.3796C42.1234 43.3498 42.213 43.3005 42.29 43.2348C42.367 43.1691 42.4297 43.0884 42.4743 42.9975C42.5188 42.9067 42.5443 42.8076 42.5492 42.7066C42.7897 41.8249 43.0101 40.9833 43.1704 40.0815C43.201 39.7081 43.201 39.3328 43.1704 38.9594C43.2103 38.5864 43.2103 38.2102 43.1704 37.8373C43.1011 37.3504 43.0007 36.8685 42.8698 36.3945L44.4128 36.5348C46.1719 36.6849 47.9376 36.7451 49.7029 36.7151C52.7248 36.6858 55.7272 36.227 58.6199 35.3525C58.7192 35.3312 58.8132 35.2903 58.8965 35.2322C58.9797 35.1741 59.0505 35.0999 59.1046 35.014C59.1588 34.9281 59.1952 34.8323 59.2118 34.7321C59.2283 34.6319 59.2247 34.5295 59.2011 34.4307C59.2011 34.3105 59.0808 34.2504 59.0207 34.1702C59.153 34.122 59.2678 34.035 59.35 33.9207C59.4322 33.8063 59.478 33.6698 59.4816 33.529C59.702 31.1845 59.9625 28.7599 60.0026 26.3152C60.033 24.7424 59.9594 23.1693 59.7822 21.6062Z" fill="#46C1E3"/>
<path d="M57.0769 47.3555C56.9349 46.6701 56.5418 46.0626 55.9748 45.6522C55.5169 45.3664 54.9914 45.2073 54.4519 45.1913C53.6401 45.2035 52.83 45.2704 52.0272 45.3917L44.8735 46.3936C44.7845 46.4034 44.6984 46.4311 44.6204 46.4752C44.5424 46.5192 44.4741 46.5786 44.4198 46.6498C44.3654 46.721 44.3261 46.8025 44.3042 46.8894C44.2823 46.9762 44.2783 47.0666 44.2924 47.1551C44.3022 47.2441 44.3299 47.3303 44.3739 47.4083C44.418 47.4863 44.4774 47.5545 44.5486 47.6089C44.6198 47.6632 44.7013 47.7025 44.7882 47.7244C44.875 47.7463 44.9654 47.7503 45.0539 47.7362L52.3078 47.6561H53.7906C55.5339 47.6561 54.532 47.4156 54.7324 50.241C54.9127 52.2448 56.4958 52.2448 52.8488 52.3651L45.1541 52.9462C44.9503 52.9566 44.7587 53.0462 44.6202 53.196C44.4816 53.3458 44.4072 53.5438 44.4127 53.7477C44.4152 53.8495 44.4381 53.9497 44.48 54.0425C44.522 54.1352 44.5821 54.2186 44.6568 54.2877C44.7315 54.3568 44.8194 54.4103 44.9151 54.4449C45.0108 54.4795 45.1125 54.4945 45.2142 54.4891L52.8087 54.6094C53.7076 54.7101 54.615 54.7101 55.5139 54.6094C56.1061 54.5075 56.6559 54.236 57.0969 53.8279C57.4044 53.4181 57.5666 52.9174 57.5578 52.4051C57.5207 51.6198 57.4405 50.8372 57.3173 50.0607C57.316 49.1537 57.2356 48.2485 57.0769 47.3555Z" fill="#46C1E3"/>
</svg>

<svg xmlns="http://www.w3.org/2000/svg" width="72" height="71" fill="none"><rect width="70.844" height="70" x=".578" y=".635" fill="#292732" rx="15.217"/><path fill="#46C1E3" d="M40.565 50.902a7.3 7.3 0 0 1-4.769 1.002 10 10 0 0 1-2.004-.42 8 8 0 0 1-1.843-.842 5.7 5.7 0 0 1-2.866-3.707c0-.581-.16-1.123-.16-1.724.097-1.519.03-3.044-.2-4.548a4.3 4.3 0 0 0-1.203-2.225 1.64 1.64 0 0 0-1.022-.4q-.616.034-1.222.16h-5.53a13 13 0 0 1-.902-1.743 7 7 0 0 1-.441-1.804c-.06-.472-.06-.95 0-1.423.068-.468.196-.926.38-1.362a5.8 5.8 0 0 1 2.525-3.186 6.47 6.47 0 0 1 5.852 0c1.022.46 6.913 3.587 2.985 9.137a.68.68 0 0 0 .2.942 11 11 0 0 1 1.784 2.004c.503.73.92 1.518 1.243 2.344.317.828.571 1.68.761 2.545.204.73.552 1.41 1.022 2.004a3.53 3.53 0 0 0 3.747 1.082q.46-.113.902-.28l.801-.381a.772.772 0 0 0-.64-1.403l-1.303.26a1.62 1.62 0 0 1-1.623-.68 5.3 5.3 0 0 1-.562-1.704 10.7 10.7 0 0 0-.821-2.324 12.4 12.4 0 0 0-2.004-2.525 10.8 10.8 0 0 0-1.843-1.343s.16 0 .22-.14c3.246-4.609.42-9.498-3.767-11.602a8.84 8.84 0 0 0-6.913-.621 7.5 7.5 0 0 0-4.57 5.13 8.2 8.2 0 0 0-.28 1.843 6.6 6.6 0 0 0 .14 1.884c.167.751.43 1.479.782 2.164q.336.613.742 1.182-1.007.025-2.004.16c-.575.066-1.14.201-1.684.401a2.24 2.24 0 0 0-.981.721 5.4 5.4 0 0 0-.822 1.704 19.7 19.7 0 0 0-.501 3.486 30.9 30.9 0 0 0 .3 8.757c.347 1.98 1.12 3.86 2.265 5.51a.7.7 0 0 0 .962.161.68.68 0 0 0 .16-.942 11.9 11.9 0 0 1-1.683-5.01 28.2 28.2 0 0 1 .26-8.155c.12-.741.26-1.763.501-2.685.096-.417.259-.817.481-1.182-.18-.321.802-.16 1.102-.2q.927-.13 1.864-.141h3.026c5.45-.2 4.95-.621 5.21.882q.225 1.746.24 3.506c.079 1.996.368 3.977.862 5.912a37 37 0 0 0 1.843 5.61.77.77 0 1 0 1.443-.54 38 38 0 0 1-1.182-4.289q.36.411.781.762a7.9 7.9 0 0 0 2.485 1.262c.873.284 1.787.42 2.705.4a8.74 8.74 0 0 0 5.811-2.243.76.76 0 0 0 .14-1.083.78.78 0 0 0-1.182-.06M40.325 20.163a.78.78 0 0 0 .18-1.082.82.82 0 0 0-1.102-.18l-5.11 2.445q-1.055.535-2.003 1.242a1.5 1.5 0 0 0-.501 1.022 1.4 1.4 0 0 0 .36 1.142c.26.3 1.062.962 1.123 1.022l4.488 3.687a.681.681 0 0 0 .962-.962l-3.667-4.588-.2-.12.741-.321zM46.216 28.279a.76.76 0 0 0-.18 1.062.8.8 0 0 0 1.082.18l5.11-2.444c.706-.342 1.377-.75 2.004-1.223.277-.25.455-.59.5-.962a1.36 1.36 0 0 0-.36-1.122 13 13 0 0 0-1.122-1.022l-4.489-3.707a.682.682 0 1 0-.962.962l3.667 4.509.2.14a5.4 5.4 0 0 0-.74.32zM46.537 16.316a.66.66 0 0 0-.882.38c-.761 1.303-1.523 2.566-2.164 4.008-.28.582-.501 1.183-.722 1.784s-.4 1.202-.56 1.823c-.381 1.463-.642 2.906-.922 4.389a.76.76 0 0 0 .52.962.78.78 0 0 0 .962-.521c.562-1.363 1.183-2.685 1.744-4.008.24-.581.48-1.162.701-1.743q.336-.878.581-1.784c.421-1.423.722-2.845 1.122-4.268a.702.702 0 0 0-.38-1.022"/><path fill="#46C1E3" d="M59.782 21.606c-1.182-10.78 1.623-7.314-8.336-8.737a81 81 0 0 0-9.498-.821c-1.603 0-3.186 0-4.77.14-1.582.14-3.245.34-4.788.581s-2.926.34-4.469.581c-3.867.662-4.008-.64-4.148 4.249q-.045.65 0 1.302.03.596.14 1.182c.2 1.002.562 2.004.762 2.906a.68.68 0 0 0 .781.621.66.66 0 0 0 .642-.701c.212-1.151.333-2.317.36-3.487a11.4 11.4 0 0 0-.22-2.004c-.1-.721-.32-1.422-.32-2.144q1.152-.225 2.324-.3c1.483-.1 2.965-.1 4.408-.16s3.106-.101 4.67-.121c1.562-.02 3.105 0 4.648 0 3.106 0 6.192 0 9.318.24 1.703.12 3.507 0 5.25 0h.28c.12.942.261 1.884.321 2.846s0 2.004.12 3.126.1 2.004.16 3.126c.221 3.206.462 6.392.542 9.498.015.134.071.26.16.36-2.913.42-5.862.52-8.797.301l-3.647-.12h-2.464c-2.242.046-4.478.24-6.693.581a.681.681 0 1 0 .1 1.343c1.503 0 2.986 0 4.448.24q-.22.771-.34 1.563-.045.552 0 1.102v1.102c0 .882.22 1.704.3 2.565a.78.78 0 0 0 1 .814.74.74 0 0 0 .523-.673c.24-.882.461-1.724.621-2.626a7 7 0 0 0 0-1.122q.06-.561 0-1.122-.104-.731-.3-1.443l1.543.14c1.759.15 3.525.211 5.29.181a31.9 31.9 0 0 0 8.917-1.363.763.763 0 0 0 .581-.921c0-.12-.12-.18-.18-.26a.7.7 0 0 0 .46-.642c.221-2.345.481-4.77.522-7.214a36 36 0 0 0-.22-4.709M57.077 47.356a2.8 2.8 0 0 0-1.102-1.704 3.05 3.05 0 0 0-1.523-.46q-1.22.017-2.425.2l-7.154 1.002a.66.66 0 0 0-.58.761.663.663 0 0 0 .76.581l7.255-.08h1.483c1.743 0 .741-.24.941 2.585.18 2.004 1.764 2.004-1.883 2.124l-7.695.581a.78.78 0 0 0-.674 1.096.76.76 0 0 0 .734.447l7.595.12c.899.101 1.806.101 2.705 0a3.1 3.1 0 0 0 1.583-.781c.307-.41.47-.91.46-1.423a21 21 0 0 0-.24-2.344 15.6 15.6 0 0 0-.24-2.706"/></svg>
